src/assets/selectIcons/elmo_6.svg

<svg xmlns="http://www.w3.org/2000/svg" viewBox="0 0 512 512"><path d="M0 0h512v512H0z"/><path fill="#fff" d="M256 32c-2.329.582-4.684 1.22-7.05 1.887-.3 36.24-2.47 79.688-18.057 121.529L256 150.852l25.318 4.603c-15.798-41.57-17.97-85.178-18.267-121.568A244.501 244.501 0 0 0 256 32zm-25.154 7.744c-55.28 20.23-114.511 63.785-132.334 139.742l111.494-20.271c17.016-39.333 20.234-82.084 20.84-119.47zm50.31 0c.615 37.616 3.88 80.578 21.164 119.53l111.168 20.212C395.666 103.53 336.436 59.975 281.156 39.744zM247 170.785L84.893 200.258C79.975 206.216 77 214.932 77 224c0 8.727 2.773 17.108 7.355 23.049 9.955.016 30.477.143 54.334 1.978 26.423 2.033 54.653 5.58 73.336 14.922l3.334 1.668 1.18 3.537c8.759 26.277 12.438 70.147 14.451 112.418 1.917 40.258 1.983 77.296 1.987 94.678L256 499.273l23.02-23.02c.002-24.258.059-62.04 1.992-100.702 2.015-40.3 5.785-80.404 14.449-106.397l1.18-3.537 3.334-1.668c18.683-9.341 46.913-12.89 73.336-14.922 23.857-1.835 44.379-1.962 54.334-1.978C432.227 241.109 435 232.727 435 224c0-9.068-2.975-17.784-7.893-23.742L265 170.785V288h-18V170.785zM224 196l8 40c-16 0-136 4-136-12s96-28 128-28zm64 0c32 0 128 12 128 28s-120 12-136 12l8-40zM84.768 265.018L64 400c50.299 12.575 100.598 25.157 150.896 53.266-.174-19.269-.64-44.677-1.886-70.838-1.886-39.599-5.906-81.122-12.496-103.846-14.253-5.833-39.588-9.793-63.203-11.61-22.087-1.698-42.15-1.922-52.543-1.954zm342.464 0c-10.393.032-30.456.256-52.543 1.955-23.63 1.817-48.98 5.78-63.228 11.619-6.654 22.578-10.59 60.209-12.473 97.857-1.366 27.324-1.786 54.59-1.92 76.838C347.38 425.165 397.69 412.577 448 400l-20.768-134.982zm-313.466 46.156l80 16-3.532 17.652-80-16 3.532-17.652zm284.468 0l3.532 17.652-80 16-3.532-17.652 80-16zm-300.576 45.98l96 18-3.316 17.692-96-18 3.316-17.692zm316.684 0l3.316 17.692-96 18-3.316-17.692 96-18z"/></svg>

<?xml version="1.0" encoding="UTF-8" standalone="no"?>
<!DOCTYPE svg PUBLIC "-//W3C//DTD SVG 1.1//EN" "http://www.w3.org/Graphics/SVG/1.1/DTD/svg11.dtd">
<svg width="100%" height="100%" viewBox="0 0 512 512" version="1.1" xmlns="http://www.w3.org/2000/svg" xmlns:xlink="http://www.w3.org/1999/xlink" xml:space="preserve" xmlns:serif="http://www.serif.com/" style="fill-rule:evenodd;clip-rule:evenodd;stroke-linejoin:round;stroke-miterlimit:2;">
    <rect x="0" y="0" width="512" height="512" style="fill-rule:nonzero;"/>
    <path d="M230.846,39.744C175.566,59.974 116.335,103.529 98.512,179.486L210.006,159.215C227.022,119.882 230.24,77.131 230.846,39.745L230.846,39.744ZM281.156,39.744C281.771,77.36 285.036,120.322 302.32,159.274L413.488,179.486C395.666,103.53 336.436,59.975 281.156,39.744ZM84.768,265.018L64,400C114.299,412.575 164.598,425.157 214.896,453.266C214.722,433.997 214.256,408.589 213.01,382.428C211.124,342.829 207.104,301.306 200.514,278.582C186.261,272.749 160.926,268.789 137.311,266.972C115.224,265.274 95.161,265.05 84.768,265.018ZM427.232,265.018C416.839,265.05 396.776,265.274 374.689,266.973C351.059,268.79 325.709,272.753 311.461,278.592C304.807,301.17 300.871,338.801 298.988,376.449C297.622,403.773 297.202,431.039 297.068,453.287C347.38,425.165 397.69,412.577 448,400L427.232,265.018ZM113.766,311.174L193.766,327.174L190.234,344.826L110.234,328.826L113.766,311.174ZM398.234,311.174L401.766,328.826L321.766,344.826L318.234,327.174L398.234,311.174ZM97.658,357.154L193.658,375.154L190.342,392.846L94.342,374.846L97.658,357.154ZM414.342,357.154L417.658,374.846L321.658,392.846L318.342,375.154L414.342,357.154Z" style="fill:rgb(213,213,213);fill-rule:nonzero;"/>
    <path d="M256,32C258.36,32.594 260.71,33.223 263.051,33.887C263.348,70.277 265.52,113.885 281.318,155.455L256,150.852L230.893,155.416C246.48,113.575 248.65,70.127 248.95,33.887C251.316,33.22 253.671,32.582 256,32ZM247,170.785L247,288L265,288L265,170.785L427.107,200.258C432.025,206.216 435,214.932 435,224C435,232.727 432.227,241.109 427.645,247.049C417.69,247.065 397.168,247.192 373.311,249.027C346.888,251.059 318.658,254.608 299.975,263.949L296.641,265.617L295.461,269.154C286.797,295.147 283.027,335.251 281.012,375.551C279.079,414.213 279.022,451.995 279.02,476.253L256,499.273L232.977,476.25C232.973,458.868 232.907,421.83 230.99,381.572C228.977,339.301 225.298,295.431 216.539,269.154L215.359,265.617L212.025,263.949C193.342,254.607 165.112,251.06 138.689,249.027C114.832,247.192 94.31,247.065 84.355,247.049C79.773,241.108 77,232.727 77,224C77,214.932 79.975,206.216 84.893,200.258L247,170.785ZM224,196C192,196 96,208 96,224C96,240 216,236 232,236L224,196ZM288,196L280,236C296,236 416,240 416,224C416,208 320,196 288,196Z" style="fill:rgb(120,120,120);"/>
</svg>
